X:1
T:Minuet in C Minor
T:Minuet in C Minor
T:J.S. Bach
C:J.S. Bach
%%score { 1 | ( 2 3 ) }
L:1/8
Q:1/4=120
M:3/4
K:Eb
V:1 treble nm="Piano" snm="Pno."
V:2 bass 
V:3 bass 
V:1
 c2 c2 d2 | e2 e2 f2 | g2 g2 a2 | T^f4{=ef} g2- | ga =f=e f2- | fg _ed e2 | c=B c2 d2 | G4 z2 :: %8
 G2 G2 A2 | BA GA B2 | C2 =E2 (3GAB | AG F4 | F2 F2 G2 | AG FG A2 | B,2 D2 (3FGA | GF E4 | %16
 G2 A2 =A2 | B2 =B2 c2 | =B2 c2 d2 | e2 =e2 f2 | d2 _e2 =e2 | f2 ^f2 g2 | G2 =fe de | c6 :| %24
V:2
 C,4 z2 | C,2 C,2 D,2 | E,2 E,2 C,2 | D,2 C,2 =B,,2 | _B,,4 =A,,2 | _A,,4 G,,2 | A,,4 F,,2 | %7
 G,,2 G,F, E,D, :: z2 =E,2 F,2 | G,2 E,2 C,2 | =E,2 C,2 _E,2 | F,3 G, F,_E, | D,4 E,2 | %13
 F,2 D,2 C,2 | D,2 B,,2 D,2 | E,3 F, E,D, | C,2 F,2 E,2 | D,2 G,2 E,2 | D,2 C,2 =B,,2 | %19
 C,2 _B,,2 =A,,2 | =B,,2 C,2 _B,,2 | =A,,2 _A,,2 G,,2 | E,2 F,2 G,2 | C,6 :| %24
V:3
 x6 | x6 | x6 | x6 | x6 | x6 | x6 | x6 :: C,6 | x6 | x6 | x6 | z2 B,,4 | x6 | x6 | x6 | x6 | x6 | %18
 x6 | x6 | x6 | x6 | x6 | x6 :| %24

